X: 42
T:Mr Thomas Tollate's Grounds,p3/3. HA.041
M:3/2
L:1/4
Q:240
S:Henry Atkinson's original MS,Hartburn,N'umberland,1694.
O:England
A:Hartburn,Northumberland
N:Third page of previous item.CGP
H:1/4
Z:vmp.Chris Partington.Jan.2004
K:F
"...Cont'd ,16"f2a2g2|fd2e/f/gc|f2c2d2|BG2A/B/cF:|!
|:"17"A2F2G2|FD2E/F/GF/E/|\
FE/D/ CB,/A,/ B,/C/D|EC2"crs" D/E/ FA,:|!
M:9/4
Q:120
|:"18"g2f dd>e "cr"c2c| f2f ddg (e/f/)ge|!
g2f dd>a dd>e |cce c/d/e/c/ f2F:|!
|:"19"af/g/a/f/ af/g/a/f/ ge/f/g/e/|af/g/a/f/ af/g/a/f/ bg/a/b/g/|!
af/g/a/f/ af/g/a/f/ ge/f/g/e/|fd/e/f/d/ ec/d/e/c/ f2F:|!
M:8/4
L:1/4
|:"20"c2-c/ c/ AA BGG|c2-c/ c/ AA B2G|!
c2-c/ c/ AAd BB|e/cc e/ccf2F:|!
M:9/4
|:"21"A F/G/A/F/ A F/G/A/F/ G E/F/G/E/|\
A F/G/A/F/ A F/G/A/F/ B G/A/B/G/|!
A F/G/A/F/ A F/G/A/F/ G E/F/G/E/|F D/E/F/D/ E C/D/E/C/ ACA,:|!
"Ground"F3F3E3|F3F3G3|F3F3D3|E3E3F3|!
d3d3A3|d3d3c3|c3d3G3|A3A3D3|]
